X:122 
T:Melodious Foot of the Glen  
B:RC3.086 ("2" - "1" is in Roche 1)
F:file ID roche.3/122mfg
Z:bill@capeirish.com
N:I have made a few small changes in this tune in order to 
avoid having the same notes, one unaccented and the other 
accented, next to one another (e.g. measures 1 and 2 in source 
are|D2FA A2FA|Adfd edfd|)
Q:90
L:1/16
M:2/4
R:reel
K:D
AF|D2FG A2FG|Adfd edfd|D2FG A2FA|BdAF EDEF|
D2FG A2FG|Adfd edfd|B2AF ABde|fafd e2d2||
faa2 afdf|gefd eBB2|faa2 afdf|g2fg e2d2|
faa2 afdf|gefd eBBA|B2AF ABde|fafd edBA|D8||

